; generated by PrusaSlicer 2.1.1 on 2020-04-28 at 08:28:10 UTC

; 

; external perimeters extrusion width = 0.45mm
; perimeters extrusion width = 0.45mm
; infill extrusion width = 0.45mm
; solid infill extrusion width = 0.45mm
; top infill extrusion width = 0.40mm
; first layer extrusion width = 0.42mm

M201 X9000 Y9000 Z500 E10000 ; sets maximum accelerations, mm/sec^2
M203 X500 Y500 Z12 E120 ; sets maximum feedrates, mm/sec
M204 P1500 R1500 T1500 ; sets acceleration (P, T) and retract acceleration (R), mm/sec^2
M205 X10.00 Y10.00 Z0.20 E2.50 ; sets the jerk limits, mm/sec
M205 S0 T0 ; sets the minimum extruding and travel feed rate, mm/sec
M107
M190 S65 ; set bed temperature and wait for it to be reached
M104 S195 ; set temperature
G28 ; home all axes
G1 Z5 F5000 ; lift nozzle
M109 S195 ; set temperature and wait for it to be reached
G21 ; set units to millimeters
G90 ; use absolute coordinates
M82 ; use absolute distances for extrusion
G92 E0
; Filament gcode
G1 Z0.350 F7800.000
G1 E-6.50000 F1500.00000
G92 E0
G1 Z1.350 F7800.000
G1 X41.071 Y57.438
G1 Z0.350
G1 E6.50000 F1500.00000
G1 F1800
G1 X42.020 Y56.472 E6.56794
G1 X42.874 Y55.886 E6.61994
G1 X43.821 Y55.450 E6.67224
G1 X44.821 Y55.180 E6.72424
G1 X45.858 Y55.081 E6.77654
G1 X175.930 Y55.080 E13.30429
G1 X177.107 Y55.195 E13.36365
G1 X178.241 Y55.532 E13.42301
G1 X179.290 Y56.079 E13.48237
G1 X180.215 Y56.816 E13.54173
G1 X180.982 Y57.716 E13.60109
G1 X181.564 Y58.746 E13.66045
G1 X181.937 Y59.861 E13.71950
G1 X182.092 Y61.034 E13.77886
G1 X182.095 Y161.388 E18.81521
G1 X181.923 Y162.706 E18.88192
G1 X181.470 Y163.962 E18.94894
G1 X180.761 Y165.087 E19.01566
G1 X179.828 Y166.034 E19.08237
G1 X178.973 Y166.619 E19.13437
G1 X178.027 Y167.056 E19.18667
G1 X177.027 Y167.326 E19.23867
G1 X175.989 Y167.425 E19.29097
G1 X45.887 Y167.425 E25.82027
G1 X44.542 Y167.269 E25.88821
G1 X43.259 Y166.820 E25.95645
G1 X42.109 Y166.105 E26.02439
G1 X41.143 Y165.157 E26.09233
G1 X40.557 Y164.302 E26.14432
G1 X40.123 Y163.362 E26.19632
G1 X39.853 Y162.368 E26.24801
G1 X39.752 Y161.336 E26.30001
G1 X39.752 Y61.204 E31.32527
G1 X39.909 Y59.865 E31.39290
G1 X40.356 Y58.588 E31.46084
G1 X41.040 Y57.489 E31.52576
G1 E25.02576 F1500.00000
G92 E0
G1 Z1.350 F7800.000
G1 X145.785 Y151.253
G1 Z0.350
G1 E6.50000 F1500.00000
G1 F1800
G1 X147.854 Y147.668 E6.70772
G1 X151.993 Y147.668 E6.91544
G1 X154.063 Y151.253 E7.12315
G1 X151.993 Y154.837 E7.33087
G1 X147.854 Y154.837 E7.53859
G1 X145.815 Y151.305 E7.74330
G1 X146.183 Y151.253 F7800.000
G1 F1800
G1 X148.053 Y148.013 E7.93103
G1 X151.794 Y148.013 E8.11876
G1 X153.665 Y151.253 E8.30649
G1 X151.794 Y154.492 E8.49423
G1 X148.053 Y154.492 E8.68196
G1 X146.213 Y151.305 E8.86668
G1 X146.581 Y151.253 F7800.000
G1 F1800
G1 X148.253 Y148.358 E9.03442
G1 X151.595 Y148.358 E9.20217
G1 X153.266 Y151.253 E9.36992
G1 X151.595 Y154.147 E9.53766
G1 X148.253 Y154.147 E9.70541
G1 X146.611 Y151.305 E9.87014
G1 X146.235 Y151.053 F7800.000
G1 E3.37014 F1500.00000
G92 E0
G1 Z1.350 F7800.000
G1 X147.854 Y100.837
G1 Z0.350
G1 E6.50000 F1500.00000
G1 F1800
G1 X145.785 Y97.253 E6.70772
G1 X147.854 Y93.668 E6.91544
G1 X151.993 Y93.668 E7.12315
G1 X154.063 Y97.253 E7.33087
G1 X151.993 Y100.837 E7.53859
G1 X147.914 Y100.837 E7.74330
G1 X148.053 Y100.492 F7800.000
G1 F1800
G1 X146.183 Y97.253 E7.93103
G1 X148.053 Y94.013 E8.11876
G1 X151.794 Y94.013 E8.30649
G1 X153.665 Y97.253 E8.49422
G1 X151.794 Y100.492 E8.68196
G1 X148.113 Y100.492 E8.86668
G1 X148.253 Y100.147 F7800.000
G1 F1800
G1 X146.581 Y97.253 E9.03442
G1 X148.253 Y94.358 E9.20217
G1 X151.595 Y94.358 E9.36991
G1 X153.266 Y97.253 E9.53766
G1 X151.595 Y100.147 E9.70541
G1 X148.313 Y100.147 E9.87014
G1 X147.906 Y100.347 F7800.000
G1 E3.37014 F1500.00000
G92 E0
G1 Z1.350 F7800.000
G1 X158.513 Y89.453
G1 Z0.350
G1 E6.50000 F1500.00000
G1 F1800
G1 X158.194 Y89.144 E6.52229
G1 X157.169 Y87.665 E6.61260
G1 X157.074 Y87.223 E6.63527
G1 X157.030 Y85.298 E6.73192
G1 X157.193 Y84.879 E6.75450
G1 X158.139 Y83.368 E6.84394
G1 X158.484 Y83.113 E6.86546
G1 X160.093 Y82.333 E6.95522
G1 X160.539 Y82.295 E6.97768
G1 X162.374 Y82.522 E7.07049
G1 X162.779 Y82.727 E7.09328
G1 X164.149 Y83.906 E7.18395
G1 X164.404 Y84.278 E7.20660
G1 X164.867 Y85.871 E7.28986
G1 X164.947 Y86.290 E7.31125
G1 X164.402 Y88.263 E7.41400
G1 X164.104 Y88.625 E7.43753
G1 X162.860 Y89.747 E7.52158
G1 X162.431 Y89.947 E7.54532
G1 X160.640 Y90.244 E7.63647
G1 X160.200 Y90.167 E7.65889
G1 X158.568 Y89.477 E7.74781
G1 X158.707 Y89.161 F7800.000
G1 F1800
G1 X158.459 Y88.920 E7.76517
G1 X157.492 Y87.525 E7.85035
G1 X157.418 Y87.183 E7.86792
G1 X157.376 Y85.359 E7.95947
G1 X157.503 Y85.034 E7.97695
G1 X158.397 Y83.607 E8.06150
G1 X158.663 Y83.409 E8.07812
G1 X160.186 Y82.671 E8.16306
G1 X160.532 Y82.641 E8.18052
G1 X162.272 Y82.857 E8.26849
G1 X162.586 Y83.016 E8.28616
G1 X163.890 Y84.138 E8.37246
G1 X164.088 Y84.427 E8.39008
G1 X164.531 Y85.952 E8.46976
G1 X164.593 Y86.276 E8.48630
G1 X164.089 Y88.101 E8.58133
G1 X163.854 Y88.386 E8.59989
G1 X162.668 Y89.456 E8.68005
G1 X162.329 Y89.614 E8.69883
G1 X160.642 Y89.895 E8.78466
G1 X160.298 Y89.834 E8.80216
G1 X158.762 Y89.184 E8.88586
G1 X158.901 Y88.869 F7800.000
G1 F1800
G1 X158.723 Y88.696 E8.89829
G1 X157.814 Y87.385 E8.97834
G1 X157.762 Y87.142 E8.99082
G1 X157.723 Y85.420 E9.07725
G1 X157.812 Y85.190 E9.08965
G1 X158.655 Y83.845 E9.16930
G1 X158.842 Y83.706 E9.18104
G1 X160.279 Y83.009 E9.26115
G1 X160.526 Y82.988 E9.27359
G1 X162.170 Y83.192 E9.35674
G1 X162.393 Y83.305 E9.36928
G1 X163.630 Y84.370 E9.45121
G1 X163.772 Y84.577 E9.46380
G1 X164.195 Y86.033 E9.53990
G1 X164.239 Y86.261 E9.55159
G1 X163.776 Y87.938 E9.63890
G1 X163.604 Y88.148 E9.65249
G1 X162.475 Y89.165 E9.72876
G1 X162.226 Y89.282 E9.74259
G1 X160.643 Y89.545 E9.82309
G1 X160.396 Y89.501 E9.83566
G1 X158.956 Y88.892 E9.91415
G1 X158.674 Y88.967 F7800.000
G1 E3.41415 F1500.00000
G92 E0
G1 Z1.350 F7800.000
G1 X64.948 Y86.291
G1 Z0.350
G1 E6.50000 F1500.00000
G1 F1800
G1 X64.368 Y88.326 E6.60617
G1 X64.058 Y88.675 E6.62961
G1 X62.774 Y89.816 E6.71580
G1 X62.357 Y89.954 E6.73787
G1 X60.605 Y90.252 E6.82706
G1 X60.183 Y90.155 E6.84878
G1 X58.531 Y89.474 E6.93845
G1 X58.216 Y89.156 E6.96093
G1 X57.148 Y87.606 E7.05538
G1 X57.056 Y87.156 E7.07844
G1 X57.051 Y85.226 E7.17529
G1 X57.212 Y84.818 E7.19733
G1 X58.132 Y83.374 E7.28324
G1 X58.473 Y83.124 E7.30449
G1 X60.090 Y82.332 E7.39480
G1 X60.526 Y82.295 E7.41676
G1 X62.319 Y82.500 E7.50736
G1 X62.725 Y82.701 E7.53008
G1 X64.113 Y83.853 E7.62062
G1 X64.371 Y84.225 E7.64331
G1 X64.864 Y85.862 E7.72910
G1 X64.937 Y86.232 E7.74807
G1 X64.594 Y86.277 F7800.000
G1 F1800
G1 X64.058 Y88.155 E7.84612
G1 X63.814 Y88.430 E7.86458
G1 X62.598 Y89.511 E7.94619
G1 X62.273 Y89.618 E7.96338
G1 X60.615 Y89.901 E8.04780
G1 X60.288 Y89.826 E8.06463
G1 X58.727 Y89.182 E8.14936
G1 X58.483 Y88.935 E8.16681
G1 X57.472 Y87.469 E8.25618
G1 X57.401 Y87.121 E8.27399
G1 X57.396 Y85.292 E8.36580
G1 X57.521 Y84.975 E8.38286
G1 X58.388 Y83.614 E8.46388
G1 X58.653 Y83.420 E8.48034
G1 X60.184 Y82.671 E8.56587
G1 X60.521 Y82.642 E8.58286
G1 X62.220 Y82.836 E8.66870
G1 X62.536 Y82.992 E8.68637
G1 X63.857 Y84.089 E8.77253
G1 X64.057 Y84.377 E8.79013
G1 X64.529 Y85.945 E8.87231
G1 X64.582 Y86.218 E8.88626
G1 X64.240 Y86.262 F7800.000
G1 F1800
G1 X63.748 Y87.985 E8.97620
G1 X63.569 Y88.186 E8.98969
G1 X62.422 Y89.205 E9.06671
G1 X62.189 Y89.283 E9.07902
G1 X60.625 Y89.549 E9.15867
G1 X60.393 Y89.496 E9.17060
G1 X58.923 Y88.889 E9.25041
G1 X58.749 Y88.714 E9.26283
G1 X57.796 Y87.331 E9.34712
G1 X57.746 Y87.086 E9.35967
G1 X57.741 Y85.357 E9.44644
G1 X57.829 Y85.133 E9.45852
G1 X58.644 Y83.854 E9.53465
G1 X58.832 Y83.716 E9.54632
G1 X60.277 Y83.009 E9.62707
G1 X60.516 Y82.988 E9.63910
G1 X62.121 Y83.172 E9.72018
G1 X62.346 Y83.283 E9.73280
G1 X63.600 Y84.324 E9.81458
G1 X63.742 Y84.529 E9.82707
G1 X64.194 Y86.028 E9.90566
G1 X64.228 Y86.203 E9.91460
G1 X64.566 Y86.493 F7800.000
G1 E3.41460 F1500.00000
G92 E0
G1 Z1.350 F7800.000
G1 X57.993 Y93.668
G1 Z0.350
G1 E6.50000 F1500.00000
G1 F1800
G1 X60.063 Y97.253 E6.70772
G1 X57.993 Y100.837 E6.91544
G1 X53.854 Y100.837 E7.12315
G1 X51.785 Y97.253 E7.33087
G1 X53.854 Y93.668 E7.53859
G1 X57.933 Y93.668 E7.74330
G1 X57.794 Y94.013 F7800.000
G1 F1800
G1 X59.665 Y97.253 E7.93103
G1 X57.794 Y100.492 E8.11876
G1 X54.053 Y100.492 E8.30649
G1 X52.183 Y97.253 E8.49422
G1 X54.053 Y94.013 E8.68196
G1 X57.734 Y94.013 E8.86668
G1 X57.595 Y94.358 F7800.000
G1 F1800
G1 X59.266 Y97.253 E9.03442
G1 X57.595 Y100.147 E9.20217
G1 X54.253 Y100.147 E9.36991
G1 X52.581 Y97.253 E9.53766
G1 X54.253 Y94.358 E9.70540
G1 X57.535 Y94.358 E9.87014
G1 X57.941 Y94.158 F7800.000
G1 E3.37014 F1500.00000
G92 E0
G1 Z1.350 F7800.000
G1 X46.824 Y62.153
G1 Z0.350
G1 E6.50000 F1500.00000
G1 F1800
G1 X175.024 Y62.153 E12.93386
G1 X175.024 Y160.353 E17.86214
G1 X46.824 Y160.353 E24.29599
G1 X46.824 Y62.213 E29.22126
G1 X46.479 Y61.808 F7800.000
G1 F1800
G1 X175.369 Y61.808 E35.68973
G1 X175.369 Y160.698 E40.65263
G1 X46.479 Y160.698 E47.12110
G1 X46.479 Y61.868 E52.08099
G1 X46.134 Y61.463 F7800.000
G1 F1800
G1 X175.714 Y61.463 E58.58408
G1 X175.714 Y161.043 E63.58159
G1 X46.134 Y161.043 E70.08468
G1 X46.134 Y61.523 E75.07919
G1 X46.524 Y61.549 F7800.000
G1 E68.57919 F1500.00000
G92 E0
G1 Z1.350 F7800.000
G1 X57.056 Y87.656
G1 Z0.350
G1 E6.50000 F1500.00000
G1 F1800
G1 X47.082 Y77.682 E7.20861
G1 X47.082 Y77.194 E7.23314
G1 X56.797 Y86.909 E7.92332
G1 X56.795 Y86.419 E7.94791
G1 X47.082 Y76.706 E8.63799
G1 X47.082 Y76.217 E8.66252
G1 X56.794 Y85.929 E9.35250
G1 X56.793 Y85.440 E9.37710
G1 X47.082 Y75.729 E10.06698
G1 X47.082 Y75.241 E10.09151
G1 X56.856 Y85.015 E10.78590
G1 X57.000 Y84.670 E10.80466
G1 X47.082 Y74.753 E11.50926
G1 X47.082 Y74.264 E11.53379
G1 X57.190 Y84.372 E12.25189
G1 X57.380 Y84.074 E12.26965
G1 X47.082 Y73.776 E13.00125
G1 X47.082 Y73.288 E13.02577
G1 X57.570 Y83.776 E13.77087
G1 X57.760 Y83.477 E13.78863
G1 X47.082 Y72.800 E14.54722
G1 X47.082 Y72.311 E14.57175
G1 X57.954 Y83.184 E15.34417
G1 X58.236 Y82.977 E15.36172
G1 X47.082 Y71.823 E16.15415
G1 X47.082 Y71.335 E16.17868
G1 X58.547 Y82.800 E16.99320
G1 X58.875 Y82.639 E17.01153
G1 X47.082 Y70.847 E17.84934
G1 X47.082 Y70.359 E17.87386
G1 X59.203 Y82.479 E18.73496
G1 X59.530 Y82.318 E18.75329
G1 X47.082 Y69.870 E19.63767
G1 X47.082 Y69.382 E19.66220
G1 X59.858 Y82.158 E20.56987
G1 X60.020 Y82.079 E20.57890
G1 X60.248 Y82.059 E20.59041
G1 X47.082 Y68.894 E21.52576
G1 X47.082 Y68.406 E21.55029
G1 X60.735 Y82.059 E22.52029
G1 X61.287 Y82.122 E22.54816
G1 X47.082 Y67.917 E23.55732
G1 X47.082 Y67.429 E23.58185
G1 X61.838 Y82.185 E24.63017
G1 X62.389 Y82.248 E24.65805
G1 X47.082 Y66.941 E25.74553
G1 X47.082 Y66.453 E25.77006
G1 X140.724 Y160.094 E32.42289
G1 X141.212 Y160.094 E32.44742
G1 X47.082 Y65.964 E39.13494
G1 X47.082 Y65.476 E39.15946
G1 X141.700 Y160.094 E45.88167
G1 X142.189 Y160.094 E45.90620
G1 X47.082 Y64.988 E52.66309
G1 X47.082 Y64.500 E52.68762
G1 X142.677 Y160.094 E59.47920
G1 X143.165 Y160.094 E59.50372
G1 X47.082 Y64.011 E66.32999
G1 X47.082 Y63.523 E66.35452
G1 X143.653 Y160.094 E73.21547
G1 X144.142 Y160.094 E73.24000
G1 X47.082 Y63.035 E80.13564
G1 X47.082 Y62.547 E80.16017
G1 X144.630 Y160.094 E87.09050
G1 X145.118 Y160.094 E87.11503
G1 X47.435 Y62.411 E94.05498
G1 X47.923 Y62.411 E94.07951
G1 X145.606 Y160.094 E101.01946
G1 X146.095 Y160.094 E101.04399
G1 X48.411 Y62.411 E107.98395
G1 X48.900 Y62.411 E108.00847
G1 X146.583 Y160.094 E114.94843
G1 X147.071 Y160.094 E114.97295
G1 X49.388 Y62.411 E121.91291
G1 X49.876 Y62.411 E121.93744
G1 X147.559 Y160.094 E128.87739
G1 X148.048 Y160.094 E128.90192
G1 X50.364 Y62.411 E135.84187
G1 X50.853 Y62.411 E135.86640
G1 X148.536 Y160.094 E142.80635
G1 X149.024 Y160.094 E142.83088
G1 X51.341 Y62.411 E149.77083
G1 X51.829 Y62.411 E149.79536
G1 X149.512 Y160.094 E156.73532
G1 X150.001 Y160.094 E156.75984
G1 X52.317 Y62.411 E163.69980
G1 X52.806 Y62.411 E163.72433
G1 X150.489 Y160.094 E170.66428
G1 X150.977 Y160.094 E170.68881
G1 X53.294 Y62.411 E177.62876
G1 X53.782 Y62.411 E177.65329
G1 X151.465 Y160.094 E184.59324
G1 X151.954 Y160.094 E184.61777
G1 X54.270 Y62.411 E191.55772
G1 X54.759 Y62.411 E191.58225
G1 X152.442 Y160.094 E198.52221
G1 X152.930 Y160.094 E198.54673
G1 X55.247 Y62.411 E205.48669
G1 X55.735 Y62.411 E205.51121
G1 X147.153 Y153.829 E212.00602
G1 X146.486 Y152.673 F7800.000
G1 F1800
G1 X56.223 Y62.411 E218.41875
G1 X56.712 Y62.411 E218.44328
G1 X145.511 Y151.210 E224.75206
G1 X145.689 Y150.901 E224.77002
G1 X57.200 Y62.411 E231.05681
G1 X57.688 Y62.411 E231.08134
G1 X145.868 Y150.591 E237.34614
G1 X146.047 Y150.282 E237.36409
G1 X58.176 Y62.411 E243.60690
G1 X58.665 Y62.411 E243.63143
G1 X146.226 Y149.972 E249.85225
G1 X146.404 Y149.663 E249.87020
G1 X59.153 Y62.411 E256.06903
G1 X59.641 Y62.411 E256.09356
G1 X146.583 Y149.353 E262.27039
G1 X146.762 Y149.044 E262.28835
G1 X60.129 Y62.411 E268.44319
G1 X60.618 Y62.411 E268.46772
G1 X146.940 Y148.734 E274.60057
G1 X147.119 Y148.424 E274.61853
G1 X61.106 Y62.411 E280.72939
G1 X61.594 Y62.411 E280.75392
G1 X147.298 Y148.115 E286.84279
G1 X147.476 Y147.805 E286.86075
G1 X62.082 Y62.411 E292.92763
G1 X62.570 Y62.411 E292.95216
G1 X147.655 Y147.496 E298.99705
G1 X147.705 Y147.410 E299.00205
G1 X148.057 Y147.410 E299.01974
G1 X63.059 Y62.411 E305.05851
G1 X63.547 Y62.411 E305.08304
G1 X148.545 Y147.410 E311.12180
G1 X149.034 Y147.410 E311.14633
G1 X64.035 Y62.411 E317.18509
G1 X64.523 Y62.411 E317.20962
G1 X149.522 Y147.410 E323.24838
G1 X150.010 Y147.410 E323.27291
G1 X65.012 Y62.411 E329.31167
G1 X65.500 Y62.411 E329.33620
G1 X150.498 Y147.410 E335.37497
G1 X150.987 Y147.410 E335.39949
G1 X65.988 Y62.411 E341.43826
G1 X66.476 Y62.411 E341.46278
G1 X151.630 Y147.565 E347.51257
G1 X152.631 Y148.565 F7800.000
G1 F1800
G1 X164.160 Y160.094 E348.33165
G1 X164.648 Y160.094 E348.35618
G1 X66.965 Y62.411 E355.29613
G1 X67.453 Y62.411 E355.32066
G1 X165.136 Y160.094 E362.26061
G1 X165.624 Y160.094 E362.28514
G1 X67.941 Y62.411 E369.22509
G1 X68.429 Y62.411 E369.24962
G1 X166.113 Y160.094 E376.18957
G1 X166.601 Y160.094 E376.21410
G1 X68.918 Y62.411 E383.15406
G1 X69.406 Y62.411 E383.17858
G1 X167.089 Y160.094 E390.11854
G1 X167.577 Y160.094 E390.14307
G1 X69.894 Y62.411 E397.08302
G1 X70.382 Y62.411 E397.10755
G1 X168.066 Y160.094 E404.04750
G1 X168.554 Y160.094 E404.07203
G1 X70.871 Y62.411 E411.01198
G1 X71.359 Y62.411 E411.03651
G1 X169.042 Y160.094 E417.97646
G1 X169.530 Y160.094 E418.00099
G1 X71.847 Y62.411 E424.94095
G1 X72.335 Y62.411 E424.96547
G1 X170.018 Y160.094 E431.90543
G1 X170.507 Y160.094 E431.92996
G1 X72.824 Y62.411 E438.86991
G1 X73.312 Y62.411 E438.89444
G1 X170.995 Y160.094 E445.83439
G1 X171.483 Y160.094 E445.85892
G1 X73.800 Y62.411 E452.79887
G1 X74.288 Y62.411 E452.82340
G1 X171.971 Y160.094 E459.76335
G1 X172.460 Y160.094 E459.78788
G1 X74.777 Y62.411 E466.72784
G1 X75.265 Y62.411 E466.75236
G1 X172.948 Y160.094 E473.69232
G1 X173.436 Y160.094 E473.71684
G1 X75.753 Y62.411 E480.65680
G1 X76.241 Y62.411 E480.68133
G1 X173.924 Y160.094 E487.62128
G1 X174.413 Y160.094 E487.64581
G1 X76.729 Y62.411 E494.58576
G1 X77.218 Y62.411 E494.61029
G1 X174.765 Y159.959 E501.54062
G1 X174.765 Y159.471 E501.56514
G1 X77.706 Y62.411 E508.46078
G1 X78.194 Y62.411 E508.48531
G1 X174.765 Y158.982 E515.34626
G1 X174.765 Y158.494 E515.37079
G1 X78.682 Y62.411 E522.19705
G1 X79.171 Y62.411 E522.22158
G1 X174.765 Y158.006 E529.01316
G1 X174.765 Y157.518 E529.03768
G1 X79.659 Y62.411 E535.79457
G1 X80.147 Y62.411 E535.81910
G1 X174.765 Y157.029 E542.54130
G1 X174.765 Y156.541 E542.56583
G1 X80.635 Y62.411 E549.25335
G1 X81.124 Y62.411 E549.27787
G1 X174.765 Y156.053 E555.93070
G1 X174.765 Y155.565 E555.95523
G1 X81.612 Y62.411 E562.57337
G1 X82.100 Y62.411 E562.59790
G1 X174.765 Y155.076 E569.18135
G1 X174.765 Y154.588 E569.20587
G1 X82.588 Y62.411 E575.75464
G1 X83.077 Y62.411 E575.77917
G1 X174.765 Y154.100 E582.29324
G1 X174.765 Y153.612 E582.31777
G1 X83.565 Y62.411 E588.79716
G1 X84.053 Y62.411 E588.82169
