; generated by PrusaSlicer 2.1.1 on 2020-04-28 at 12:45:16 UTC

; 

; external perimeters extrusion width = 0.45mm
; perimeters extrusion width = 0.45mm
; infill extrusion width = 0.45mm
; solid infill extrusion width = 0.45mm
; top infill extrusion width = 0.40mm
; first layer extrusion width = 0.42mm

M201 X9000 Y9000 Z500 E10000 ; sets maximum accelerations, mm/sec^2
M203 X500 Y500 Z12 E120 ; sets maximum feedrates, mm/sec
M204 P1500 R1500 T1500 ; sets acceleration (P, T) and retract acceleration (R), mm/sec^2
M205 X10.00 Y10.00 Z0.20 E2.50 ; sets the jerk limits, mm/sec
M205 S0 T0 ; sets the minimum extruding and travel feed rate, mm/sec
M107
M190 S65 ; set bed temperature and wait for it to be reached
M104 S195 ; set temperature
G28 ; home all axes
G1 Z5 F5000 ; lift nozzle
M109 S195 ; set temperature and wait for it to be reached
G21 ; set units to millimeters
G90 ; use absolute coordinates
M82 ; use absolute distances for extrusion
G92 E0
; Filament gcode
G1 Z0.350 F7800.000
G1 E-6.50000 F1500.00000
G92 E0
G1 Z1.350 F7800.000
G1 X103.384 Y103.668
G1 Z0.350
G1 E6.50000 F1500.00000
G1 F1800
G1 X104.199 Y102.905 E6.55604
G1 X105.013 Y102.346 E6.60558
G1 X106.394 Y101.583 E6.68477
G1 X107.556 Y101.168 E6.74668
G1 X108.545 Y100.984 E6.79715
G1 X110.421 Y100.873 E6.89148
G1 X111.764 Y101.007 E6.95922
G1 X112.912 Y101.339 E7.01920
G1 X114.715 Y102.157 E7.11856
G1 X116.028 Y103.103 E7.19978
G1 X149.223 Y136.291 E9.55549
G1 X150.509 Y137.824 E9.65590
G1 X151.253 Y139.009 E9.72613
G1 X151.707 Y140.213 E9.79070
G1 X152.136 Y142.339 E9.89954
G1 X152.170 Y143.123 E9.93894
G1 X152.103 Y143.912 E9.97865
G1 X151.658 Y145.960 E10.08385
G1 X151.147 Y147.194 E10.15087
G1 X150.606 Y148.052 E10.20179
G1 X149.631 Y149.265 E10.27990
G1 X148.654 Y150.212 E10.34815
G1 X147.569 Y150.922 E10.41325
G1 X145.728 Y151.747 E10.51447
G1 X144.434 Y152.045 E10.58113
G1 X142.767 Y152.145 E10.66493
G1 X141.709 Y152.073 E10.71815
G1 X140.500 Y151.793 E10.78045
G1 X138.834 Y151.157 E10.86993
G1 X137.614 Y150.408 E10.94177
G1 X136.976 Y149.853 E10.98425
G1 X103.971 Y116.848 E13.32674
G1 X102.594 Y115.377 E13.42781
G1 X101.979 Y114.432 E13.48442
G1 X101.580 Y113.569 E13.53212
G1 X101.039 Y111.793 E13.62530
G1 X100.868 Y110.746 E13.67852
G1 X100.868 Y109.459 E13.74313
G1 X101.171 Y107.676 E13.83389
G1 X101.427 Y106.767 E13.88128
G1 X101.865 Y105.781 E13.93545
G1 X102.284 Y105.110 E13.97516
G1 X103.347 Y103.715 E14.06316
G1 X104.996 Y104.207 F7800.000
G1 F1800
G1 X106.776 Y103.083 E14.16884
G1 X107.868 Y102.645 E14.22787
G1 X111.026 Y102.421 E14.38674
G1 X112.276 Y102.711 E14.45113
G1 X113.955 Y103.473 E14.54370
G1 X115.264 Y104.469 E14.62622
G1 X116.336 Y105.780 E14.71121
G1 X117.086 Y107.119 E14.78823
G1 X117.543 Y108.958 E14.88334
G1 X117.603 Y110.766 E14.97412
G1 X116.849 Y113.436 E15.11337
G1 X116.265 Y114.313 E15.16623
G1 X114.715 Y116.033 E15.28242
G1 X113.780 Y116.627 E15.33801
G1 X111.961 Y117.398 E15.43714
G1 X110.931 Y117.576 E15.48964
G1 X108.995 Y117.588 E15.58679
G1 X107.964 Y117.353 E15.63985
G1 X106.029 Y116.544 E15.74510
G1 X105.140 Y115.875 E15.80095
G1 X103.950 Y114.653 E15.88655
G1 X102.983 Y113.013 E15.98208
G1 X102.475 Y111.291 E16.07220
G1 X102.381 Y109.499 E16.16227
G1 X102.676 Y107.870 E16.24534
G1 X103.044 Y106.802 E16.30205
G1 X104.227 Y105.016 E16.40955
G1 X104.955 Y104.251 E16.46255
G1 X105.230 Y104.461 F7800.000
G1 F1800
G1 X106.946 Y103.383 E16.56424
G1 X107.971 Y102.975 E16.61959
G1 X110.974 Y102.763 E16.77068
G1 X112.150 Y103.033 E16.83123
G1 X113.763 Y103.760 E16.92005
G1 X115.010 Y104.703 E16.99851
G1 X116.059 Y105.987 E17.08172
G1 X116.757 Y107.225 E17.15305
G1 X117.199 Y108.990 E17.24433
G1 X117.263 Y110.700 E17.33022
G1 X116.546 Y113.269 E17.46406
G1 X115.999 Y114.093 E17.51369
G1 X114.509 Y115.755 E17.62572
G1 X113.631 Y116.315 E17.67801
G1 X111.882 Y117.062 E17.77345
G1 X110.913 Y117.232 E17.82281
G1 X109.051 Y117.247 E17.91627
G1 X108.082 Y117.029 E17.96611
G1 X106.218 Y116.255 E18.06739
G1 X105.377 Y115.625 E18.12012
G1 X104.212 Y114.427 E18.20401
G1 X103.307 Y112.895 E18.29331
G1 X102.818 Y111.252 E18.37935
G1 X102.724 Y109.540 E18.46536
G1 X103.013 Y107.944 E18.54678
G1 X103.344 Y106.973 E18.59824
G1 X104.506 Y105.219 E18.70383
G1 X105.189 Y104.505 E18.75344
G1 X105.464 Y104.716 F7800.000
G1 F1800
G1 X107.115 Y103.684 E18.85115
G1 X108.073 Y103.306 E18.90283
G1 X110.923 Y103.105 E19.04621
G1 X112.025 Y103.355 E19.10293
G1 X113.572 Y104.048 E19.18801
G1 X114.757 Y104.938 E19.26236
G1 X115.783 Y106.194 E19.34379
G1 X116.429 Y107.333 E19.40947
G1 X116.855 Y109.023 E19.49694
G1 X116.924 Y110.635 E19.57792
G1 X116.243 Y113.102 E19.70634
G1 X115.733 Y113.873 E19.75273
G1 X114.303 Y115.478 E19.86062
G1 X113.481 Y116.004 E19.90959
G1 X111.802 Y116.726 E20.00134
G1 X110.895 Y116.887 E20.04757
G1 X109.106 Y116.906 E20.13734
G1 X108.199 Y116.704 E20.18397
G1 X106.407 Y115.965 E20.28126
G1 X105.615 Y115.375 E20.33085
G1 X104.473 Y114.201 E20.41302
G1 X103.632 Y112.776 E20.49608
G1 X103.154 Y111.173 E20.58004
G1 X103.067 Y109.582 E20.66000
G1 X103.350 Y108.018 E20.73973
G1 X103.663 Y107.107 E20.78810
G1 X104.784 Y105.423 E20.88960
G1 X105.422 Y104.759 E20.93583
G1 X105.697 Y104.971 F7800.000
G1 F1800
G1 X107.283 Y103.986 E21.02957
G1 X108.174 Y103.637 E21.07758
G1 X110.872 Y103.447 E21.21332
G1 X111.901 Y103.677 E21.26622
G1 X113.382 Y104.336 E21.34757
G1 X114.503 Y105.172 E21.41777
G1 X115.507 Y106.402 E21.49742
G1 X116.100 Y107.440 E21.55744
G1 X116.516 Y109.090 E21.64286
G1 X116.584 Y110.571 E21.71722
G1 X115.940 Y112.935 E21.84021
G1 X115.467 Y113.654 E21.88338
G1 X114.096 Y115.201 E21.98710
G1 X113.331 Y115.693 E22.03277
G1 X111.721 Y116.390 E22.12084
G1 X110.876 Y116.542 E22.16393
G1 X109.160 Y116.565 E22.25001
G1 X108.316 Y116.379 E22.29342
G1 X106.595 Y115.676 E22.38673
G1 X105.852 Y115.124 E22.43314
G1 X104.735 Y113.975 E22.51357
G1 X103.956 Y112.657 E22.59044
G1 X103.497 Y111.132 E22.67034
G1 X103.410 Y109.623 E22.74620
G1 X103.687 Y108.093 E22.82423
G1 X103.981 Y107.241 E22.86948
G1 X105.062 Y105.628 E22.96688
G1 X105.655 Y105.014 E23.00973
G1 X105.929 Y105.227 F7800.000
G1 F1800
G1 X107.451 Y104.288 E23.09948
G1 X108.275 Y103.967 E23.14385
G1 X110.822 Y103.789 E23.27202
G1 X111.778 Y104.000 E23.32111
G1 X113.192 Y104.625 E23.39874
G1 X114.250 Y105.407 E23.46476
G1 X115.231 Y106.609 E23.54262
G1 X115.772 Y107.548 E23.59698
G1 X116.178 Y109.158 E23.68034
G1 X116.244 Y110.508 E23.74814
G1 X115.636 Y112.769 E23.86567
G1 X115.200 Y113.435 E23.90562
G1 X113.889 Y114.924 E24.00519
G1 X113.180 Y115.383 E24.04755
G1 X111.639 Y116.055 E24.13193
G1 X110.855 Y116.198 E24.17189
G1 X109.214 Y116.224 E24.25429
G1 X108.431 Y116.054 E24.29448
G1 X106.782 Y115.385 E24.38379
G1 X106.090 Y114.873 E24.42699
G1 X104.996 Y113.750 E24.50568
G1 X104.280 Y112.537 E24.57635
G1 X103.833 Y111.052 E24.65418
G1 X103.753 Y109.664 E24.72395
G1 X104.024 Y108.168 E24.80027
G1 X104.300 Y107.376 E24.84236
G1 X105.339 Y105.834 E24.93565
G1 X105.887 Y105.270 E24.97513
G1 X106.160 Y105.484 F7800.000
G1 F1800
G1 X107.617 Y104.590 E25.06090
G1 X108.374 Y104.299 E25.10163
G1 X110.773 Y104.131 E25.22232
G1 X111.655 Y104.322 E25.26760
G1 X113.004 Y104.915 E25.34154
G1 X113.997 Y105.643 E25.40331
G1 X114.956 Y106.817 E25.47940
G1 X115.443 Y107.656 E25.52809
G1 X115.840 Y109.227 E25.60940
G1 X115.903 Y110.446 E25.67068
G1 X115.332 Y112.605 E25.78273
G1 X114.932 Y113.218 E25.81948
G1 X113.680 Y114.649 E25.91488
G1 X113.028 Y115.073 E25.95393
G1 X111.556 Y115.719 E26.03462
G1 X110.834 Y115.853 E26.07145
G1 X109.266 Y115.882 E26.15017
G1 X108.545 Y115.728 E26.18715
G1 X106.968 Y115.094 E26.27246
G1 X106.327 Y114.622 E26.31242
G1 X105.258 Y113.524 E26.38934
G1 X104.604 Y112.418 E26.45381
G1 X104.170 Y110.972 E26.52958
G1 X104.096 Y109.705 E26.59326
G1 X104.361 Y108.243 E26.66785
G1 X104.617 Y107.511 E26.70676
G1 X105.615 Y106.041 E26.79593
G1 X106.118 Y105.527 E26.83203
G1 X106.390 Y105.741 F7800.000
G1 F1800
G1 X107.783 Y104.893 E26.91383
G1 X108.473 Y104.630 E26.95092
G1 X110.725 Y104.474 E27.06423
G1 X111.534 Y104.646 E27.10571
G1 X112.817 Y105.205 E27.17596
G1 X113.744 Y105.878 E27.23346
G1 X114.680 Y107.025 E27.30776
G1 X115.115 Y107.764 E27.35079
G1 X115.501 Y109.296 E27.43004
G1 X115.563 Y110.386 E27.48484
G1 X115.027 Y112.440 E27.59140
G1 X114.663 Y113.001 E27.62494
G1 X113.471 Y114.373 E27.71618
G1 X112.875 Y114.763 E27.75191
G1 X111.472 Y115.384 E27.82893
G1 X110.812 Y115.509 E27.86262
G1 X109.317 Y115.541 E27.93766
G1 X108.659 Y115.402 E27.97143
G1 X107.154 Y114.802 E28.05274
G1 X106.564 Y114.371 E28.08941
G1 X105.519 Y113.298 E28.16457
G1 X104.929 Y112.299 E28.22283
G1 X104.506 Y110.892 E28.29654
G1 X104.439 Y109.747 E28.35413
G1 X104.698 Y108.318 E28.42698
G1 X104.935 Y107.648 E28.46266
G1 X105.891 Y106.249 E28.54770
G1 X106.348 Y105.784 E28.58043
G1 X106.620 Y106.000 F7800.000
G1 F1800
G1 X107.947 Y105.197 E28.65827
G1 X108.571 Y104.962 E28.69173
G1 X110.679 Y104.816 E28.79776
G1 X111.413 Y104.969 E28.83539
G1 X112.662 Y105.514 E28.90381
G1 X113.491 Y106.114 E28.95515
G1 X114.406 Y107.234 E29.02772
G1 X114.787 Y107.874 E29.06509
G1 X115.163 Y109.365 E29.14227
G1 X115.222 Y110.327 E29.19066
G1 X114.722 Y112.277 E29.29168
G1 X114.394 Y112.785 E29.32203
G1 X113.261 Y114.099 E29.40911
G1 X112.722 Y114.454 E29.44152
G1 X111.387 Y115.049 E29.51487
G1 X110.789 Y115.164 E29.54541
G1 X109.367 Y115.199 E29.61679
G1 X108.771 Y115.076 E29.64734
G1 X107.338 Y114.510 E29.72465
G1 X106.800 Y114.120 E29.75799
G1 X105.781 Y113.072 E29.83136
G1 X105.253 Y112.179 E29.88342
G1 X104.842 Y110.812 E29.95507
G1 X104.782 Y109.788 E30.00656
G1 X105.035 Y108.394 E30.07766
G1 X105.252 Y107.786 E30.11008
G1 X106.166 Y106.457 E30.19099
G1 X106.578 Y106.042 E30.22034
G1 X106.848 Y106.259 F7800.000
G1 F1800
G1 X108.110 Y105.501 E30.29421
G1 X108.668 Y105.293 E30.32405
G1 X110.633 Y105.159 E30.42292
G1 X111.292 Y105.293 E30.45666
G1 X112.508 Y105.823 E30.52323
G1 X113.238 Y106.350 E30.56843
G1 X114.131 Y107.443 E30.63929
G1 X114.459 Y107.984 E30.67100
G1 X114.825 Y109.435 E30.74610
G1 X114.881 Y110.270 E30.78812
G1 X114.417 Y112.115 E30.88359
G1 X114.124 Y112.570 E30.91075
G1 X113.050 Y113.825 E30.99367
G1 X112.567 Y114.146 E31.02275
G1 X111.300 Y114.715 E31.09243
G1 X110.765 Y114.820 E31.11983
G1 X109.416 Y114.857 E31.18755
G1 X108.882 Y114.749 E31.21488
G1 X107.521 Y114.217 E31.28819
G1 X107.037 Y113.869 E31.31816
G1 X106.042 Y112.846 E31.38973
G1 X105.577 Y112.060 E31.43558
G1 X105.178 Y110.732 E31.50516
G1 X105.125 Y109.829 E31.55056
G1 X105.371 Y108.470 E31.61989
G1 X105.568 Y107.924 E31.64900
G1 X106.440 Y106.667 E31.72577
G1 X106.806 Y106.301 E31.75174
G1 X107.076 Y106.519 F7800.000
G1 F1800
G1 X108.273 Y105.806 E31.82166
G1 X108.763 Y105.626 E31.84789
G1 X110.589 Y105.501 E31.93973
G1 X111.172 Y105.617 E31.96954
G1 X112.353 Y106.132 E32.03424
G1 X112.986 Y106.586 E32.07330
G1 X113.858 Y107.653 E32.14248
G1 X114.131 Y108.095 E32.16854
G1 X114.487 Y109.505 E32.24154
G1 X114.539 Y110.215 E32.27727
G1 X114.111 Y111.954 E32.36713
G1 X113.853 Y112.356 E32.39112
G1 X112.837 Y113.552 E32.46988
G1 X112.411 Y113.838 E32.49562
G1 X111.213 Y114.381 E32.56165
G1 X110.739 Y114.476 E32.58589
G1 X109.463 Y114.515 E32.64996
G1 X108.992 Y114.421 E32.67407
G1 X107.703 Y113.924 E32.74339
G1 X107.273 Y113.617 E32.76992
G1 X106.304 Y112.621 E32.83967
G1 X105.901 Y111.941 E32.87932
G1 X105.514 Y110.652 E32.94684
G1 X105.468 Y109.870 E32.98614
G1 X105.708 Y108.546 E33.05368
G1 X105.884 Y108.065 E33.07942
G1 X106.713 Y106.878 E33.15207
G1 X107.033 Y106.561 E33.17465
G1 X107.302 Y106.780 F7800.000
G1 F1800
G1 X108.433 Y106.111 E33.24063
G1 X108.857 Y105.958 E33.26323
G1 X110.546 Y105.844 E33.34821
G1 X111.052 Y105.941 E33.37404
G1 X112.199 Y106.441 E33.43685
G1 X112.733 Y106.822 E33.46977
G1 X113.585 Y107.865 E33.53735
G1 X113.804 Y108.207 E33.55774
G1 X114.149 Y109.576 E33.62861
G1 X114.197 Y110.162 E33.65810
G1 X113.804 Y111.793 E33.74232
G1 X113.582 Y112.144 E33.76313
G1 X112.624 Y113.281 E33.83774
G1 X112.254 Y113.530 E33.86014
G1 X111.124 Y114.047 E33.92253
G1 X110.712 Y114.132 E33.94360
G1 X109.509 Y114.172 E34.00404
G1 X109.100 Y114.094 E34.02492
G1 X107.884 Y113.629 E34.09026
G1 X107.509 Y113.364 E34.11330
G1 X106.565 Y112.395 E34.18120
G1 X106.226 Y111.821 E34.21465
G1 X105.850 Y110.572 E34.28010
G1 X105.811 Y109.912 E34.31331
G1 X106.045 Y108.623 E34.37904
G1 X106.199 Y108.206 E34.40135
G1 X106.986 Y107.090 E34.46987
G1 X107.259 Y106.822 E34.48906
G1 X107.526 Y107.043 F7800.000
G1 F1800
G1 X108.593 Y106.418 E34.55111
G1 X108.949 Y106.291 E34.57009
G1 X110.506 Y106.187 E34.64840
G1 X110.933 Y106.265 E34.67018
G1 X112.046 Y106.750 E34.73108
G1 X112.481 Y107.058 E34.75785
G1 X113.311 Y108.075 E34.82372
G1 X113.497 Y108.368 E34.84114
G1 X113.811 Y109.647 E34.90723
G1 X113.855 Y110.112 E34.93068
G1 X113.496 Y111.634 E35.00919
G1 X113.309 Y111.932 E35.02683
G1 X112.409 Y113.010 E35.09730
G1 X112.096 Y113.224 E35.11633
G1 X111.033 Y113.714 E35.17510
G1 X110.684 Y113.788 E35.19298
G1 X109.552 Y113.830 E35.24982
G1 X109.207 Y113.765 E35.26745
G1 X108.063 Y113.333 E35.32883
G1 X107.744 Y113.112 E35.34831
G1 X106.827 Y112.169 E35.41433
G1 X106.550 Y111.702 E35.44157
G1 X106.186 Y110.492 E35.50497
G1 X106.154 Y109.953 E35.53208
G1 X106.381 Y108.700 E35.59596
G1 X106.514 Y108.350 E35.61477
G1 X107.257 Y107.303 E35.67920
G1 X107.483 Y107.085 E35.69497
G1 X107.749 Y107.307 F7800.000
G1 F1800
G1 X108.751 Y106.725 E35.75313
G1 X109.039 Y106.625 E35.76845
G1 X110.469 Y106.531 E35.84035
G1 X110.815 Y106.590 E35.85799
G1 X111.892 Y107.059 E35.91696
G1 X112.229 Y107.295 E35.93759
G1 X113.037 Y108.285 E36.00169
G1 X113.190 Y108.527 E36.01608
G1 X113.474 Y109.717 E36.07747
G1 X113.512 Y110.065 E36.09504
G1 X113.188 Y111.477 E36.16775
G1 X113.036 Y111.721 E36.18221
G1 X112.193 Y112.740 E36.24857
G1 X111.936 Y112.918 E36.26421
G1 X110.940 Y113.381 E36.31939
G1 X110.654 Y113.444 E36.33406
G1 X109.594 Y113.487 E36.38733
G1 X109.312 Y113.436 E36.40169
G1 X108.239 Y113.036 E36.45915
G1 X107.979 Y112.858 E36.47498
G1 X107.088 Y111.943 E36.53908
G1 X106.874 Y111.582 E36.56012
G1 X106.522 Y110.412 E36.62145
G1 X106.497 Y109.994 E36.64247
G1 X106.717 Y108.779 E36.70446
G1 X106.827 Y108.495 E36.71969
G1 X107.528 Y107.518 E36.78004
G1 X107.705 Y107.348 E36.79238
G1 X107.969 Y107.573 F7800.000
G1 F1800
G1 X108.907 Y107.033 E36.84669
G1 X109.127 Y106.959 E36.85831
G1 X110.436 Y106.874 E36.92414
G1 X110.699 Y106.915 E36.93752
G1 X111.740 Y107.369 E36.99452
G1 X111.978 Y107.533 E37.00901
G1 X112.763 Y108.494 E37.07129
G1 X112.882 Y108.684 E37.08256
G1 X113.136 Y109.788 E37.13941
G1 X113.168 Y110.023 E37.15129
G1 X112.879 Y111.321 E37.21804
G1 X112.761 Y111.512 E37.22932
G1 X111.974 Y112.472 E37.29161
G1 X111.775 Y112.612 E37.30382
G1 X110.844 Y113.050 E37.35546
G1 X110.622 Y113.100 E37.36687
G1 X109.632 Y113.144 E37.41662
G1 X109.415 Y113.107 E37.42767
G1 X108.412 Y112.738 E37.48128
G1 X108.213 Y112.604 E37.49335
G1 X107.349 Y111.717 E37.55548
G1 X107.198 Y111.463 E37.57032
G1 X106.858 Y110.332 E37.62958
G1 X106.840 Y110.035 E37.64450
G1 X107.053 Y108.858 E37.70454
G1 X107.139 Y108.644 E37.71609
G1 X107.797 Y107.734 E37.77243
G1 X107.925 Y107.614 E37.78129
G1 E31.28129 F1500.00000
G92 E0
G1 Z1.350 F7800.000
G1 X115.993 Y115.210
G1 Z0.350
G1 E6.50000 F1500.00000
G1 F1800
G1 X117.776 Y114.083 E6.60588
G1 X118.868 Y113.645 E6.66491
G1 X122.026 Y113.421 E6.82378
G1 X123.276 Y113.711 E6.88817
G1 X124.955 Y114.473 E6.98074
G1 X126.264 Y115.469 E7.06326
G1 X127.336 Y116.780 E7.14826
G1 X128.086 Y118.119 E7.22527
G1 X128.543 Y119.958 E7.32039
G1 X128.603 Y121.766 E7.41117
G1 X127.849 Y124.436 E7.55042
G1 X127.265 Y125.313 E7.60328
G1 X125.715 Y127.033 E7.71946
G1 X124.780 Y127.627 E7.77505
G1 X122.961 Y128.398 E7.87418
G1 X121.931 Y128.576 E7.92668
G1 X119.995 Y128.588 E8.02383
G1 X118.964 Y128.353 E8.07690
G1 X117.029 Y127.544 E8.18214
G1 X116.140 Y126.875 E8.23799
G1 X114.950 Y125.653 E8.32360
G1 X113.983 Y124.013 E8.41913
G1 X113.475 Y122.291 E8.50924
G1 X113.381 Y120.499 E8.59931
