; generated by PrusaSlicer 2.1.1 on 2020-04-28 at 10:36:29 UTC

; 

; external perimeters extrusion width = 0.45mm
; perimeters extrusion width = 0.45mm
; infill extrusion width = 0.45mm
; solid infill extrusion width = 0.45mm
; top infill extrusion width = 0.40mm
; support material extrusion width = 0.35mm
; first layer extrusion width = 0.42mm

M201 X9000 Y9000 Z500 E10000 ; sets maximum accelerations, mm/sec^2
M203 X500 Y500 Z12 E120 ; sets maximum feedrates, mm/sec
M204 P1500 R1500 T1500 ; sets acceleration (P, T) and retract acceleration (R), mm/sec^2
M205 X10.00 Y10.00 Z0.20 E2.50 ; sets the jerk limits, mm/sec
M205 S0 T0 ; sets the minimum extruding and travel feed rate, mm/sec
M107
M190 S65 ; set bed temperature and wait for it to be reached
M104 S195 ; set temperature
G28 ; home all axes
G1 Z5 F5000 ; lift nozzle
M109 S195 ; set temperature and wait for it to be reached
G21 ; set units to millimeters
G90 ; use absolute coordinates
M82 ; use absolute distances for extrusion
G92 E0
; Filament gcode
G1 Z0.350 F7800.000
G1 E-6.50000 F1500.00000
G92 E0
G1 Z1.350 F7800.000
G1 X42.631 Y63.832
G1 Z0.350
G1 E6.50000 F1500.00000
G1 F1800
G1 X43.580 Y62.866 E6.56794
G1 X44.434 Y62.280 E6.61994
G1 X45.381 Y61.844 E6.67224
G1 X46.381 Y61.574 E6.72424
G1 X47.419 Y61.475 E6.77654
G1 X177.490 Y61.474 E13.30429
G1 X178.667 Y61.589 E13.36365
G1 X179.801 Y61.926 E13.42301
G1 X180.850 Y62.473 E13.48237
G1 X181.775 Y63.210 E13.54173
G1 X182.542 Y64.110 E13.60109
G1 X183.124 Y65.140 E13.66045
G1 X183.497 Y66.256 E13.71950
G1 X183.652 Y67.428 E13.77886
G1 X183.655 Y167.782 E18.81521
G1 X183.483 Y169.100 E18.88192
G1 X183.030 Y170.356 E18.94894
G1 X182.321 Y171.481 E19.01566
G1 X181.388 Y172.428 E19.08237
G1 X180.533 Y173.013 E19.13437
G1 X179.587 Y173.450 E19.18667
G1 X178.587 Y173.720 E19.23867
G1 X177.549 Y173.819 E19.29097
G1 X47.447 Y173.819 E25.82027
G1 X46.102 Y173.663 E25.88821
G1 X44.819 Y173.214 E25.95645
G1 X43.669 Y172.499 E26.02439
G1 X42.703 Y171.551 E26.09233
G1 X42.117 Y170.696 E26.14432
G1 X41.683 Y169.756 E26.19632
G1 X41.413 Y168.762 E26.24801
G1 X41.312 Y167.731 E26.30001
G1 X41.312 Y67.598 E31.32527
G1 X41.469 Y66.259 E31.39290
G1 X41.916 Y64.982 E31.46084
G1 X42.600 Y63.883 E31.52576
G1 E25.02576 F1500.00000
G92 E0
G1 Z1.350 F7800.000
G1 X44.615 Y63.954
G1 Z0.350
G1 E6.50000 F1500.00000
G1 F1800
G1 X45.728 Y63.303 E6.56471
G1 X46.997 Y62.991 E6.63028
G1 X177.945 Y62.994 E13.20205
G1 X178.880 Y63.172 E13.24983
G1 X179.787 Y63.558 E13.29927
G1 X180.984 Y64.554 E13.37739
G1 X181.769 Y65.750 E13.44922
G1 X182.140 Y67.157 E13.52224
G1 X182.140 Y168.134 E18.58985
G1 X181.852 Y169.333 E18.65174
G1 X181.440 Y170.165 E18.69831
G1 X180.353 Y171.340 E18.77867
G1 X179.240 Y171.990 E18.84338
G1 X177.971 Y172.303 E18.90894
G1 X46.997 Y172.303 E25.48200
G1 X45.798 Y172.015 E25.54389
G1 X44.966 Y171.603 E25.59046
G1 X43.791 Y170.516 E25.67082
G1 X43.140 Y169.403 E25.73553
G1 X42.828 Y168.134 E25.80109
G1 X42.828 Y67.160 E30.86858
G1 X43.115 Y65.961 E30.93046
G1 X43.528 Y65.129 E30.97704
G1 X44.574 Y63.998 E31.05438
G1 X44.812 Y64.238 F7800.000
G1 F1800
G1 X45.837 Y63.632 E31.11412
G1 X47.018 Y63.336 E31.17523
G1 X177.929 Y63.339 E37.74509
G1 X178.796 Y63.507 E37.78943
G1 X179.627 Y63.865 E37.83483
G1 X180.742 Y64.801 E37.90788
G1 X181.465 Y65.914 E37.97451
G1 X181.795 Y67.179 E38.04011
G1 X181.795 Y168.113 E43.10557
G1 X181.522 Y169.232 E43.16336
G1 X181.143 Y169.988 E43.20582
G1 X180.155 Y171.056 E43.27883
G1 X179.131 Y171.662 E43.33857
G1 X177.949 Y171.958 E43.39968
G1 X47.018 Y171.958 E49.97061
G1 X45.899 Y171.685 E50.02841
G1 X45.143 Y171.306 E50.07086
G1 X44.074 Y170.318 E50.14387
G1 X43.468 Y169.294 E50.20361
G1 X43.173 Y168.113 E50.26472
G1 X43.173 Y67.181 E55.33008
G1 X43.446 Y66.062 E55.38787
G1 X43.825 Y65.306 E55.43032
G1 X44.772 Y64.282 E55.50032
G1 X45.047 Y64.492 F7800.000
G1 F1800
G1 X45.989 Y63.942 E55.55507
G1 X47.039 Y63.681 E55.60939
G1 X177.911 Y63.684 E62.17733
G1 X178.710 Y63.842 E62.21820
G1 X179.465 Y64.171 E62.25952
G1 X180.499 Y65.047 E62.32756
G1 X181.139 Y66.030 E62.38639
G1 X181.450 Y67.202 E62.44725
G1 X181.450 Y168.092 E67.51049
G1 X181.192 Y169.129 E67.56413
G1 X180.847 Y169.810 E67.60244
G1 X179.921 Y170.802 E67.67056
G1 X178.979 Y171.352 E67.72530
G1 X177.929 Y171.613 E67.77962
G1 X47.039 Y171.613 E74.34842
G1 X46.002 Y171.355 E74.40206
G1 X45.321 Y171.010 E74.44037
G1 X44.329 Y170.084 E74.50848
G1 X43.779 Y169.142 E74.56323
G1 X43.518 Y168.092 E74.61754
G1 X43.518 Y67.202 E79.68077
G1 X43.775 Y66.165 E79.73442
G1 X44.121 Y65.484 E79.77272
G1 X45.006 Y64.536 E79.83782
G1 X45.280 Y64.747 F7800.000
G1 F1800
G1 X46.097 Y64.270 E79.88529
G1 X47.061 Y64.026 E79.93518
G1 X177.894 Y64.029 E86.50115
G1 X178.623 Y64.176 E86.53848
G1 X179.302 Y64.475 E86.57574
G1 X180.255 Y65.292 E86.63872
G1 X180.834 Y66.193 E86.69244
G1 X181.105 Y67.224 E86.74595
G1 X181.105 Y168.070 E91.80699
G1 X180.863 Y169.024 E91.85641
G1 X180.552 Y169.630 E91.89057
G1 X179.687 Y170.547 E91.95384
G1 X178.870 Y171.024 E92.00131
G1 X177.907 Y171.268 E92.05120
G1 X47.061 Y171.268 E98.61781
G1 X46.106 Y171.026 E98.66723
G1 X45.501 Y170.715 E98.70139
G1 X44.583 Y169.850 E98.76466
G1 X44.107 Y169.033 E98.81212
G1 X43.862 Y168.070 E98.86201
G1 X43.862 Y67.224 E103.92305
G1 X44.105 Y66.270 E103.97247
G1 X44.416 Y65.664 E104.00663
G1 X45.239 Y64.790 E104.06689
G1 X45.513 Y65.002 F7800.000
G1 F1800
G1 X46.207 Y64.598 E104.10721
G1 X47.083 Y64.370 E104.15264
G1 X177.876 Y64.374 E110.71658
G1 X178.534 Y64.510 E110.75031
G1 X179.138 Y64.779 E110.78348
G1 X180.010 Y65.536 E110.84146
G1 X180.508 Y66.309 E110.88756
G1 X180.760 Y67.247 E110.93633
G1 X180.760 Y168.047 E115.99509
G1 X180.535 Y168.918 E116.04022
G1 X180.258 Y169.448 E116.07022
G1 X179.455 Y170.292 E116.12868
G1 X178.760 Y170.696 E116.16901
G1 X177.884 Y170.923 E116.21443
G1 X47.083 Y170.923 E122.77880
G1 X46.213 Y170.698 E122.82392
G1 X45.683 Y170.421 E122.85392
G1 X44.839 Y169.618 E122.91239
G1 X44.435 Y168.923 E122.95271
G1 X44.207 Y168.047 E122.99814
G1 X44.207 Y67.246 E128.05692
G1 X44.433 Y66.376 E128.10205
G1 X44.710 Y65.846 E128.13205
G1 X45.472 Y65.046 E128.18750
G1 X45.744 Y65.259 F7800.000
G1 F1800
G1 X46.319 Y64.925 E128.22084
G1 X47.106 Y64.715 E128.26175
G1 X177.858 Y64.719 E134.82366
G1 X178.411 Y64.832 E134.85196
G1 X178.973 Y65.084 E134.88285
G1 X179.763 Y65.778 E134.93568
G1 X180.202 Y66.470 E134.97681
G1 X180.415 Y67.269 E135.01831
G1 X180.415 Y168.024 E140.07479
G1 X180.207 Y168.809 E140.11553
G1 X179.965 Y169.264 E140.14138
G1 X179.223 Y170.035 E140.19508
G1 X178.649 Y170.369 E140.22842
G1 X177.861 Y170.578 E140.26932
G1 X47.106 Y170.578 E146.83138
G1 X46.322 Y170.370 E146.87213
G1 X45.867 Y170.128 E146.89797
G1 X45.096 Y169.386 E146.95167
G1 X44.762 Y168.812 E146.98501
G1 X44.552 Y168.024 E147.02592
G1 X44.552 Y67.269 E152.08240
G1 X44.761 Y66.485 E152.12314
G1 X45.003 Y66.030 E152.14899
G1 X45.703 Y65.302 E152.19967
G1 X45.975 Y65.517 F7800.000
G1 F1800
G1 X46.432 Y65.251 E152.22620
G1 X47.130 Y65.060 E152.26254
G1 X177.840 Y65.064 E158.82232
G1 X178.320 Y65.165 E158.84694
G1 X178.805 Y65.386 E158.87371
G1 X179.516 Y66.019 E158.92148
G1 X179.877 Y66.587 E158.95524
G1 X180.070 Y67.293 E158.99198
G1 X180.070 Y168.001 E164.04609
G1 X179.880 Y168.698 E164.08235
G1 X179.674 Y169.078 E164.10404
G1 X178.993 Y169.777 E164.15303
G1 X178.536 Y170.042 E164.17955
G1 X177.838 Y170.234 E164.21589
G1 X47.130 Y170.234 E170.77556
G1 X46.433 Y170.043 E170.81183
G1 X46.053 Y169.837 E170.83351
G1 X45.354 Y169.156 E170.88250
G1 X45.088 Y168.699 E170.90903
G1 X44.897 Y168.001 E170.94536
G1 X44.897 Y67.293 E175.99947
G1 X45.088 Y66.596 E176.03573
G1 X45.294 Y66.216 E176.05742
G1 X45.933 Y65.560 E176.10339
G1 X46.171 Y65.801 F7800.000
G1 F1800
G1 X46.549 Y65.577 E176.12545
G1 X47.155 Y65.405 E176.15705
G1 X177.820 Y65.408 E182.71463
G1 X178.226 Y65.498 E182.73547
G1 X178.636 Y65.687 E182.75813
G1 X179.267 Y66.259 E182.80088
G1 X179.552 Y66.706 E182.82749
G1 X179.726 Y67.318 E182.85939
G1 X179.726 Y167.976 E187.91103
G1 X179.554 Y168.583 E187.94268
G1 X179.384 Y168.890 E187.96028
G1 X178.797 Y169.493 E188.00252
G1 X178.419 Y169.717 E188.02457
G1 X177.813 Y169.889 E188.05618
G1 X47.155 Y169.889 E194.61339
G1 X46.548 Y169.717 E194.64505
G1 X46.241 Y169.547 E194.66264
G1 X45.638 Y168.960 E194.70488
G1 X45.413 Y168.582 E194.72694
G1 X45.242 Y167.976 E194.75854
G1 X45.242 Y67.318 E199.81018
G1 X45.414 Y66.711 E199.84183
G1 X45.584 Y66.404 E199.85943
G1 X46.129 Y65.844 E199.89866
G1 X47.180 Y65.750 F7800.000
G1 F1800
G1 X177.800 Y65.753 E206.45393
G1 X178.129 Y65.829 E206.47087
G1 X178.463 Y65.987 E206.48944
G1 X179.017 Y66.497 E206.52721
G1 X179.229 Y66.828 E206.54693
G1 X179.381 Y67.343 E206.57388
G1 X179.381 Y167.951 E211.62295
G1 X179.229 Y168.465 E211.64985
G1 X179.096 Y168.698 E211.66333
G1 X178.567 Y169.235 E211.70114
G1 X178.300 Y169.393 E211.71673
G1 X177.787 Y169.544 E211.74355
G1 X47.180 Y169.544 E218.29820
G1 X46.666 Y169.392 E218.32510
G1 X46.433 Y169.260 E218.33858
G1 X45.896 Y168.730 E218.37639
G1 X45.738 Y168.463 E218.39197
G1 X45.587 Y167.951 E218.41880
G1 X45.587 Y67.343 E223.46787
G1 X45.738 Y66.829 E223.49477
G1 X45.871 Y66.596 E223.50825
G1 X46.400 Y66.059 E223.54606
G1 X46.667 Y65.901 E223.56164
G1 X47.123 Y65.767 E223.58546
G1 X46.789 Y66.224 F7800.000
G1 F1800
G1 X47.207 Y66.095 E223.60742
G1 X177.780 Y66.098 E230.16034
G1 X177.998 Y66.149 E230.17157
G1 X178.291 Y66.287 E230.18781
G1 X178.765 Y66.734 E230.22050
G1 X178.907 Y66.954 E230.23365
G1 X179.036 Y67.370 E230.25553
G1 X179.036 Y167.923 E235.30188
G1 X178.907 Y168.342 E235.32384
G1 X178.812 Y168.503 E235.33323
G1 X178.340 Y168.975 E235.36674
G1 X178.178 Y169.070 E235.37613
G1 X177.760 Y169.199 E235.39809
G1 X47.207 Y169.199 E241.95001
G1 X46.789 Y169.070 E241.97197
G1 X46.628 Y168.975 E241.98136
G1 X46.156 Y168.503 E242.01487
G1 X46.061 Y168.342 E242.02426
G1 X45.932 Y167.923 E242.04622
G1 X45.932 Y67.370 E247.09257
G1 X46.061 Y66.952 E247.11453
G1 X46.156 Y66.791 E247.12391
G1 X46.628 Y66.319 E247.15742
G1 X46.737 Y66.254 E247.16380
G1 X46.919 Y66.544 F7800.000
G1 F1800
G1 X47.236 Y66.440 E247.18054
G1 X177.760 Y66.443 E253.73099
G1 X177.867 Y66.468 E253.73651
G1 X178.117 Y66.586 E253.75038
G1 X178.511 Y66.967 E253.77790
G1 X178.588 Y67.084 E253.78491
G1 X178.691 Y67.399 E253.80154
G1 X178.691 Y167.894 E258.84498
G1 X178.587 Y168.211 E258.86173
G1 X178.530 Y168.303 E258.86712
G1 X178.140 Y168.693 E258.89483
G1 X178.048 Y168.750 E258.90023
G1 X177.731 Y168.854 E258.91697
G1 X47.236 Y168.854 E265.46599
G1 X46.919 Y168.750 E265.48273
G1 X46.828 Y168.693 E265.48813
G1 X46.437 Y168.303 E265.51584
G1 X46.381 Y168.211 E265.52124
G1 X46.277 Y167.894 E265.53798
G1 X46.277 Y67.399 E270.58142
G1 X46.381 Y67.082 E270.59817
G1 X46.437 Y66.991 E270.60357
G1 X46.868 Y66.575 E270.63360
G1 X47.060 Y66.859 F7800.000
G1 F1800
G1 X47.268 Y66.785 E270.64469
G1 X177.712 Y66.785 E277.19114
G1 X177.941 Y66.885 E277.20368
G1 X178.255 Y67.199 E277.22595
G1 X178.346 Y67.431 E277.23849
G1 X178.346 Y167.862 E282.27871
G1 X178.255 Y168.095 E282.29125
G1 X177.932 Y168.418 E282.31418
G1 X177.699 Y168.509 E282.32672
G1 X47.268 Y168.509 E288.87251
G1 X47.036 Y168.418 E288.88505
G1 X46.713 Y168.095 E288.90798
G1 X46.622 Y167.862 E288.92052
G1 X46.622 Y67.431 E293.96074
G1 X46.713 Y67.199 E293.97328
G1 X47.014 Y66.897 E293.99469
G1 X47.243 Y67.156 F7800.000
G1 F1800
G1 X47.307 Y67.130 E293.99813
G1 X177.661 Y67.130 E300.54008
G1 X177.724 Y67.156 E300.54352
G1 X177.975 Y67.406 E300.56131
G1 X178.001 Y67.470 E300.56475
G1 X178.001 Y167.824 E305.60112
G1 X177.975 Y167.887 E305.60456
G1 X177.724 Y168.138 E305.62235
G1 X177.661 Y168.164 E305.62579
G1 X47.307 Y168.164 E312.16774
G1 X47.243 Y168.138 E312.17118
G1 X46.993 Y167.887 E312.18896
G1 X46.966 Y167.824 E312.19241
G1 X46.966 Y67.470 E317.22878
G1 X46.993 Y67.406 E317.23222
G1 X47.201 Y67.198 E317.24699
G1 X47.412 Y67.474 F7800.000
G1 F1800
G1 X177.555 Y67.474 E323.77833
G1 X177.656 Y67.575 E323.78550
G1 X177.656 Y167.718 E328.81126
G1 X177.555 Y167.819 E328.81843
G1 X47.412 Y167.819 E335.34977
G1 X47.311 Y167.718 E335.35694
G1 X47.311 Y67.575 E340.38270
G1 X47.370 Y67.517 E340.38686
G1 E333.88686 F1500.00000
G92 E0
G1 Z1.350 F7800.000
G1 X73.006 Y100.734
G1 Z0.350
G1 E6.50000 F1500.00000
G1 F1800
G1 X73.006 Y112.401 E7.08552
G1 X73.695 Y112.401 E7.12014
G1 X73.695 Y100.890 E7.69787
G1 X74.385 Y100.890 E7.73249
G1 X74.385 Y112.401 E8.31022
G1 X75.075 Y112.401 E8.34483
G1 X75.075 Y100.890 E8.92256
G1 X75.765 Y100.890 E8.95718
G1 X75.765 Y112.557 E9.54270
G1 E3.04270 F1500.00000
G92 E0
G1 Z1.350 F7800.000
G1 X73.006 Y123.019
G1 Z0.350
G1 E6.50000 F1500.00000
G1 F1800
G1 X73.006 Y134.686 E7.08552
G1 X73.695 Y134.686 E7.12014
G1 X73.695 Y123.175 E7.69787
G1 X74.385 Y123.175 E7.73249
G1 X74.385 Y134.686 E8.31022
G1 X75.075 Y134.686 E8.34483
G1 X75.075 Y123.175 E8.92256
G1 X75.765 Y123.175 E8.95718
G1 X75.765 Y134.842 E9.54270
G1 E3.04270 F1500.00000
G92 E0
G1 Z1.350 F7800.000
G1 X54.918 Y162.653
G1 Z0.350
G1 E6.50000 F1500.00000
G1 F1800
G1 X54.568 Y163.869 E6.56346
G1 X54.267 Y164.224 E6.58687
G1 X53.608 Y164.774 E6.62994
G1 X53.185 Y164.930 E6.65254
G1 X52.316 Y165.043 E6.69652
G1 X51.872 Y164.959 E6.71924
G1 X51.053 Y164.572 E6.76470
G1 X50.717 Y164.264 E6.78757
G1 X50.244 Y163.504 E6.83249
G1 X50.124 Y163.055 E6.85578
G1 X50.148 Y162.117 E6.90288
G1 X50.291 Y161.676 E6.92614
G1 X50.799 Y160.942 E6.97094
G1 X51.155 Y160.653 E6.99394
G1 X52.007 Y160.299 E7.04025
G1 X52.463 Y160.251 E7.06326
G1 X53.358 Y160.411 E7.10891
G1 X53.761 Y160.628 E7.13188
G1 X54.489 Y161.302 E7.18164
G1 X54.665 Y161.726 E7.20473
G1 X54.902 Y162.596 E7.24994
G1 X54.560 Y162.651 F7800.000
G1 F1800
G1 X54.257 Y163.702 E7.30483
G1 X54.023 Y163.978 E7.32303
G1 X53.433 Y164.472 E7.36163
G1 X53.103 Y164.593 E7.37929
G1 X52.326 Y164.694 E7.41856
G1 X51.979 Y164.629 E7.43631
G1 X51.248 Y164.282 E7.47691
G1 X50.985 Y164.041 E7.49481
G1 X50.564 Y163.366 E7.53477
G1 X50.470 Y163.015 E7.55299
G1 X50.492 Y162.176 E7.59509
G1 X50.604 Y161.831 E7.61329
G1 X51.055 Y161.179 E7.65309
G1 X51.333 Y160.953 E7.67111
G1 X52.093 Y160.636 E7.71238
G1 X52.450 Y160.599 E7.73041
G1 X53.243 Y160.741 E7.77086
G1 X53.559 Y160.911 E7.78885
G1 X54.199 Y161.504 E7.83263
G1 X54.338 Y161.838 E7.85084
G1 X54.544 Y162.593 E7.89009
G1 X54.202 Y162.648 F7800.000
G1 F1800
G1 X53.947 Y163.535 E7.93641
G1 X53.779 Y163.733 E7.94940
G1 X53.257 Y164.169 E7.98352
G1 X53.020 Y164.256 E7.99623
G1 X52.336 Y164.345 E8.03082
G1 X52.086 Y164.298 E8.04358
G1 X51.442 Y163.993 E8.07933
G1 X51.253 Y163.819 E8.09225
G1 X50.884 Y163.227 E8.12726
G1 X50.816 Y162.974 E8.14040
G1 X50.835 Y162.235 E8.17750
G1 X50.916 Y161.986 E8.19065
G1 X51.310 Y161.416 E8.22543
G1 X51.512 Y161.252 E8.23848
G1 X52.179 Y160.974 E8.27472
G1 X52.437 Y160.947 E8.28777
G1 X53.129 Y161.071 E8.32301
G1 X53.357 Y161.194 E8.33603
G1 X53.909 Y161.705 E8.37382
G1 X54.011 Y161.951 E8.38715
G1 X54.186 Y162.591 E8.42044
G1 X54.530 Y162.878 F7800.000
G1 E1.92044 F1500.00000
G92 E0
G1 Z1.350 F7800.000
G1 X60.584 Y143.547
G1 Z0.350
G1 E6.50000 F1500.00000
G1 F1800
G1 X60.584 Y91.747 E9.09961
G1 X77.384 Y91.747 E9.94271
G1 X77.384 Y143.547 E12.54232
G1 X60.644 Y143.547 E13.38241
G1 X60.929 Y143.202 F7800.000
G1 F1800
G1 X60.929 Y92.092 E15.94740
G1 X77.039 Y92.092 E16.75588
G1 X77.039 Y143.202 E19.32087
G1 X60.989 Y143.202 E20.12634
G1 X61.274 Y142.857 F7800.000
G1 F1800
G1 X61.274 Y92.437 E22.65672
G1 X76.694 Y92.437 E23.43058
G1 X76.694 Y142.857 E25.96096
G1 X61.334 Y142.857 E26.73181
G1 X60.909 Y143.022 F7800.000
G1 E20.23181 F1500.00000
G92 E0
G1 Z1.350 F7800.000
G1 X54.921 Y72.651
G1 Z0.350
G1 E6.50000 F1500.00000
G1 F1800
G1 X54.554 Y73.892 E6.56493
G1 X54.266 Y74.229 E6.58718
G1 X53.592 Y74.782 E6.63092
G1 X53.183 Y74.932 E6.65276
G1 X52.312 Y75.043 E6.69686
G1 X51.869 Y74.958 E6.71951
G1 X51.038 Y74.560 E6.76571
G1 X50.699 Y74.245 E6.78898
G1 X50.231 Y73.459 E6.83486
G1 X50.115 Y73.020 E6.85768
G1 X50.142 Y72.140 E6.90185
G1 X50.277 Y71.714 E6.92429
G1 X50.762 Y70.978 E6.96854
