; generated by PrusaSlicer 2.1.1 on 2020-04-28 at 21:58:26 UTC

; 

; external perimeters extrusion width = 0.45mm
; perimeters extrusion width = 0.45mm
; infill extrusion width = 0.45mm
; solid infill extrusion width = 0.45mm
; top infill extrusion width = 0.40mm
; support material extrusion width = 0.35mm
; first layer extrusion width = 0.42mm

M201 X9000 Y9000 Z500 E10000 ; sets maximum accelerations, mm/sec^2
M203 X500 Y500 Z12 E120 ; sets maximum feedrates, mm/sec
M204 P1500 R1500 T1500 ; sets acceleration (P, T) and retract acceleration (R), mm/sec^2
M205 X10.00 Y10.00 Z0.20 E2.50 ; sets the jerk limits, mm/sec
M205 S0 T0 ; sets the minimum extruding and travel feed rate, mm/sec
M107
M190 S65 ; set bed temperature and wait for it to be reached
M104 S195 ; set temperature
G28 ; home all axes
G1 Z5 F5000 ; lift nozzle
M109 S195 ; set temperature and wait for it to be reached
G21 ; set units to millimeters
G90 ; use absolute coordinates
M82 ; use absolute distances for extrusion
G92 E0
; Filament gcode
G1 Z0.350 F7800.000
G1 E-6.50000 F1500.00000
G92 E0
G1 Z1.350 F7800.000
G1 X44.853 Y55.789
G1 Z0.350
G1 E6.50000 F1500.00000
G1 F1800
G1 X45.801 Y54.823 E6.56794
G1 X46.656 Y54.238 E6.61994
G1 X47.602 Y53.801 E6.67224
G1 X48.603 Y53.531 E6.72424
G1 X49.640 Y53.432 E6.77654
G1 X179.711 Y53.432 E13.30429
G1 X180.889 Y53.546 E13.36365
G1 X182.022 Y53.883 E13.42301
G1 X183.071 Y54.430 E13.48237
G1 X183.996 Y55.167 E13.54173
G1 X184.764 Y56.067 E13.60109
G1 X185.346 Y57.097 E13.66045
G1 X185.719 Y58.213 E13.71950
G1 X185.874 Y59.385 E13.77886
G1 X185.876 Y159.739 E18.81521
G1 X185.704 Y161.057 E18.88192
G1 X185.251 Y162.314 E18.94894
G1 X184.543 Y163.438 E19.01566
G1 X183.609 Y164.385 E19.08237
G1 X182.755 Y164.971 E19.13437
G1 X181.808 Y165.407 E19.18667
G1 X180.808 Y165.677 E19.23867
G1 X179.771 Y165.776 E19.29097
G1 X49.669 Y165.776 E25.82027
G1 X48.324 Y165.620 E25.88821
G1 X47.040 Y165.171 E25.95645
G1 X45.891 Y164.457 E26.02439
G1 X44.924 Y163.508 E26.09233
G1 X44.339 Y162.654 E26.14432
G1 X43.904 Y161.713 E26.19632
G1 X43.634 Y160.719 E26.24801
G1 X43.533 Y159.688 E26.30001
G1 X43.533 Y59.555 E31.32527
G1 X43.691 Y58.217 E31.39290
G1 X44.138 Y56.939 E31.46084
G1 X44.821 Y55.840 E31.52576
G1 E25.02576 F1500.00000
G92 E0
G1 Z1.350 F7800.000
G1 X57.140 Y154.611
G1 Z0.350
G1 E6.50000 F1500.00000
G1 F1800
G1 X56.790 Y155.826 E6.56346
G1 X56.488 Y156.181 E6.58687
G1 X55.829 Y156.732 E6.62994
G1 X55.407 Y156.888 E6.65254
G1 X54.538 Y157.000 E6.69652
G1 X54.093 Y156.917 E6.71924
G1 X53.274 Y156.529 E6.76470
G1 X52.939 Y156.221 E6.78757
G1 X52.465 Y155.461 E6.83249
G1 X52.346 Y155.013 E6.85578
G1 X52.370 Y154.074 E6.90288
G1 X52.513 Y153.634 E6.92614
G1 X53.021 Y152.899 E6.97094
G1 X53.376 Y152.611 E6.99394
G1 X54.228 Y152.256 E7.04025
G1 X54.684 Y152.208 E7.06326
G1 X55.580 Y152.368 E7.10891
G1 X55.983 Y152.585 E7.13188
G1 X56.710 Y153.259 E7.18164
G1 X56.887 Y153.684 E7.20473
G1 X57.124 Y154.553 E7.24994
G1 X56.782 Y154.608 F7800.000
G1 F1800
G1 X56.479 Y155.659 E7.30483
G1 X56.244 Y155.936 E7.32303
G1 X55.654 Y156.429 E7.36163
G1 X55.324 Y156.551 E7.37929
G1 X54.548 Y156.651 E7.41856
G1 X54.200 Y156.586 E7.43631
G1 X53.469 Y156.240 E7.47691
G1 X53.206 Y155.998 E7.49481
G1 X52.785 Y155.323 E7.53477
G1 X52.692 Y154.972 E7.55299
G1 X52.713 Y154.133 E7.59509
G1 X52.825 Y153.788 E7.61329
G1 X53.276 Y153.136 E7.65309
G1 X53.555 Y152.910 E7.67111
G1 X54.314 Y152.594 E7.71238
G1 X54.671 Y152.556 E7.73041
G1 X55.465 Y152.698 E7.77086
G1 X55.781 Y152.868 E7.78885
G1 X56.421 Y153.461 E7.83263
G1 X56.560 Y153.796 E7.85084
G1 X56.766 Y154.550 E7.89009
G1 X56.423 Y154.606 F7800.000
G1 F1800
G1 X56.168 Y155.492 E7.93641
G1 X56.001 Y155.690 E7.94940
G1 X55.479 Y156.126 E7.98352
G1 X55.241 Y156.213 E7.99623
G1 X54.558 Y156.302 E8.03082
G1 X54.308 Y156.255 E8.04358
G1 X53.664 Y155.950 E8.07933
G1 X53.474 Y155.776 E8.09225
G1 X53.105 Y155.184 E8.12726
G1 X53.038 Y154.931 E8.14040
G1 X53.057 Y154.192 E8.17750
G1 X53.138 Y153.943 E8.19065
G1 X53.532 Y153.373 E8.22543
G1 X53.734 Y153.209 E8.23848
G1 X54.400 Y152.931 E8.27472
G1 X54.659 Y152.904 E8.28777
G1 X55.350 Y153.028 E8.32301
G1 X55.579 Y153.151 E8.33603
G1 X56.131 Y153.663 E8.37382
G1 X56.233 Y153.908 E8.38715
G1 X56.408 Y154.548 E8.42044
G1 X56.751 Y154.835 F7800.000
G1 E1.92044 F1500.00000
G92 E0
G1 Z1.350 F7800.000
G1 X62.806 Y135.504
G1 Z0.350
G1 E6.50000 F1500.00000
G1 F1800
G1 X62.806 Y83.704 E9.09961
G1 X79.605 Y83.704 E9.94271
G1 X79.605 Y135.504 E12.54232
G1 X62.866 Y135.504 E13.38241
G1 X63.150 Y135.159 F7800.000
G1 F1800
G1 X63.150 Y84.049 E15.94740
G1 X79.260 Y84.049 E16.75588
G1 X79.260 Y135.159 E19.32087
G1 X63.210 Y135.159 E20.12634
G1 X63.495 Y134.814 F7800.000
G1 F1800
G1 X63.495 Y84.394 E22.65672
G1 X78.915 Y84.394 E23.43058
G1 X78.915 Y134.814 E25.96096
G1 X63.555 Y134.814 E26.73181
G1 X63.131 Y134.979 F7800.000
G1 E20.23181 F1500.00000
G92 E0
G1 Z1.350 F7800.000
G1 X57.142 Y64.608
G1 Z0.350
G1 E6.50000 F1500.00000
G1 F1800
G1 X56.775 Y65.849 E6.56493
G1 X56.488 Y66.186 E6.58718
G1 X55.814 Y66.739 E6.63092
G1 X55.405 Y66.889 E6.65276
G1 X54.533 Y67.000 E6.69686
G1 X54.090 Y66.915 E6.71951
G1 X53.260 Y66.517 E6.76571
G1 X52.920 Y66.202 E6.78898
G1 X52.452 Y65.417 E6.83486
G1 X52.337 Y64.977 E6.85768
G1 X52.363 Y64.097 E6.90185
G1 X52.498 Y63.671 E6.92429
G1 X52.983 Y62.935 E6.96854
G1 X53.333 Y62.642 E6.99143
G1 X54.170 Y62.266 E7.03746
G1 X54.633 Y62.211 E7.06087
G1 X55.562 Y62.363 E7.10809
G1 X55.975 Y62.578 E7.13146
G1 X56.675 Y63.210 E7.17880
G1 X56.866 Y63.643 E7.20253
G1 X57.126 Y64.551 E7.24994
G1 X56.783 Y64.607 F7800.000
G1 F1800
G1 X56.465 Y65.681 E7.30616
G1 X56.245 Y65.939 E7.32319
G1 X55.640 Y66.435 E7.36246
G1 X55.323 Y66.552 E7.37942
G1 X54.544 Y66.651 E7.41881
G1 X54.199 Y66.585 E7.43645
G1 X53.456 Y66.229 E7.47779
G1 X53.191 Y65.983 E7.49595
G1 X52.773 Y65.282 E7.53690
G1 X52.683 Y64.937 E7.55477
G1 X52.706 Y64.156 E7.59403
G1 X52.813 Y63.821 E7.61166
G1 X53.244 Y63.167 E7.65096
G1 X53.518 Y62.937 E7.66892
G1 X54.263 Y62.602 E7.70991
G1 X54.626 Y62.559 E7.72823
G1 X55.452 Y62.694 E7.77024
G1 X55.777 Y62.863 E7.78861
G1 X56.389 Y63.417 E7.83005
G1 X56.541 Y63.760 E7.84891
G1 X56.767 Y64.549 E7.89008
G1 X56.424 Y64.605 F7800.000
G1 F1800
G1 X56.155 Y65.513 E7.93759
G1 X56.003 Y65.692 E7.94941
G1 X55.467 Y66.132 E7.98419
G1 X55.241 Y66.214 E7.99628
G1 X54.555 Y66.302 E8.03095
G1 X54.308 Y66.255 E8.04359
G1 X53.652 Y65.941 E8.08006
G1 X53.462 Y65.764 E8.09311
G1 X53.095 Y65.147 E8.12912
G1 X53.029 Y64.898 E8.14206
G1 X53.050 Y64.214 E8.17640
G1 X53.127 Y63.971 E8.18922
G1 X53.504 Y63.399 E8.22358
G1 X53.703 Y63.232 E8.23661
G1 X54.356 Y62.939 E8.27255
G1 X54.618 Y62.908 E8.28579
G1 X55.342 Y63.026 E8.32259
G1 X55.578 Y63.149 E8.33596
G1 X56.103 Y63.624 E8.37150
G1 X56.216 Y63.878 E8.38548
G1 X56.408 Y64.547 E8.42041
G1 X56.752 Y64.834 F7800.000
G1 E1.92041 F1500.00000
G92 E0
G1 Z1.350 F7800.000
G1 X177.141 Y64.592
G1 Z0.350
G1 E6.50000 F1500.00000
G1 F1800
G1 X176.832 Y65.735 E6.55945
G1 X176.566 Y66.103 E6.58224
G1 X175.910 Y66.679 E6.62606
G1 X175.498 Y66.863 E6.64870
G1 X174.621 Y67.002 E6.69323
G1 X174.167 Y66.937 E6.71625
G1 X173.322 Y66.562 E6.76268
G1 X172.969 Y66.256 E6.78609
G1 X172.477 Y65.483 E6.83207
G1 X172.349 Y65.044 E6.85501
G1 X172.350 Y64.161 E6.89934
G1 X172.475 Y63.730 E6.92186
G1 X172.941 Y62.979 E6.96621
G1 X173.284 Y62.678 E6.98912
G1 X174.112 Y62.279 E7.03526
G1 X174.577 Y62.214 E7.05882
G1 X175.517 Y62.346 E7.10644
G1 X175.938 Y62.555 E7.13003
G1 X176.646 Y63.168 E7.17705
G1 X176.848 Y63.613 E7.20156
G1 X177.124 Y64.534 E7.24981
G1 X176.782 Y64.596 F7800.000
G1 F1800
G1 X176.515 Y65.584 E7.30116
G1 X176.309 Y65.870 E7.31884
G1 X175.721 Y66.386 E7.35809
G1 X175.399 Y66.530 E7.37581
G1 X174.619 Y66.653 E7.41545
G1 X174.264 Y66.602 E7.43346
G1 X173.509 Y66.267 E7.47490
G1 X173.233 Y66.028 E7.49320
G1 X172.794 Y65.339 E7.53421
G1 X172.694 Y64.995 E7.55220
G1 X172.695 Y64.210 E7.59159
G1 X172.793 Y63.872 E7.60928
G1 X173.207 Y63.205 E7.64867
G1 X173.476 Y62.968 E7.66665
G1 X174.213 Y62.614 E7.70772
G1 X174.577 Y62.563 E7.72616
G1 X175.413 Y62.680 E7.76853
G1 X175.745 Y62.845 E7.78712
G1 X176.364 Y63.380 E7.82816
G1 X176.524 Y63.734 E7.84770
G1 X176.765 Y64.539 E7.88985
G1 X176.424 Y64.601 F7800.000
G1 F1800
G1 X176.199 Y65.433 E7.93311
G1 X176.052 Y65.636 E7.94568
G1 X175.533 Y66.092 E7.98035
G1 X175.300 Y66.196 E7.99316
G1 X174.616 Y66.304 E8.02789
G1 X174.360 Y66.267 E8.04091
G1 X173.696 Y65.973 E8.07736
G1 X173.497 Y65.801 E8.09055
G1 X173.112 Y65.195 E8.12659
G1 X173.039 Y64.946 E8.13961
G1 X173.040 Y64.259 E8.17407
G1 X173.111 Y64.013 E8.18693
G1 X173.473 Y63.430 E8.22137
G1 X173.668 Y63.259 E8.23441
G1 X174.315 Y62.948 E8.27042
G1 X174.577 Y62.911 E8.28373
G1 X175.310 Y63.013 E8.32086
G1 X175.552 Y63.134 E8.33445
G1 X176.081 Y63.591 E8.36950
G1 X176.201 Y63.855 E8.38407
G1 X176.406 Y64.544 E8.42013
G1 X176.756 Y64.824 F7800.000
G1 E1.92013 F1500.00000
G92 E0
G1 Z1.350 F7800.000
G1 X177.132 Y154.559
G1 Z0.350
G1 E6.50000 F1500.00000
G1 F1800
G1 X177.046 Y154.988 E6.52198
G1 X176.799 Y155.787 E6.56392
G1 X176.530 Y156.152 E6.58668
G1 X175.864 Y156.703 E6.63004
G1 X175.454 Y156.881 E6.65249
G1 X174.583 Y156.998 E6.69660
G1 X174.138 Y156.932 E6.71914
G1 X173.321 Y156.561 E6.76418
G1 X172.980 Y156.267 E6.78676
G1 X172.491 Y155.524 E6.83144
G1 X172.359 Y155.087 E6.85434
G1 X172.350 Y154.167 E6.90049
G1 X172.473 Y153.731 E6.92324
G1 X172.935 Y152.987 E6.96722
G1 X173.271 Y152.687 E6.98980
G1 X174.086 Y152.288 E7.03535
G1 X174.532 Y152.216 E7.05802
G1 X175.427 Y152.311 E7.10322
G1 X175.845 Y152.508 E7.12638
G1 X176.642 Y153.154 E7.17784
G1 X176.840 Y153.600 E7.20236
G1 X177.115 Y154.502 E7.24966
G1 X176.777 Y154.576 F7800.000
G1 F1800
G1 X176.711 Y154.903 E7.26640
G1 X176.487 Y155.629 E7.30453
G1 X176.277 Y155.913 E7.32223
G1 X175.682 Y156.406 E7.36102
G1 X175.360 Y156.545 E7.37861
G1 X174.585 Y156.650 E7.41787
G1 X174.237 Y156.598 E7.43554
G1 X173.509 Y156.267 E7.47566
G1 X173.242 Y156.037 E7.49335
G1 X172.807 Y155.376 E7.53308
G1 X172.704 Y155.034 E7.55099
G1 X172.695 Y154.213 E7.59221
G1 X172.791 Y153.871 E7.61002
G1 X173.202 Y153.211 E7.64907
G1 X173.465 Y152.975 E7.66678
G1 X174.191 Y152.620 E7.70734
G1 X174.541 Y152.564 E7.72513
G1 X175.333 Y152.648 E7.76510
G1 X175.660 Y152.803 E7.78324
G1 X176.360 Y153.370 E7.82846
G1 X176.517 Y153.721 E7.84776
G1 X176.759 Y154.519 E7.88963
G1 X176.422 Y154.594 F7800.000
G1 F1800
G1 X176.376 Y154.818 E7.90113
G1 X176.175 Y155.471 E7.93544
G1 X176.025 Y155.674 E7.94809
G1 X175.500 Y156.109 E7.98229
G1 X175.267 Y156.210 E7.99503
G1 X174.587 Y156.301 E8.02945
G1 X174.335 Y156.264 E8.04223
G1 X173.697 Y155.974 E8.07744
G1 X173.504 Y155.807 E8.09023
G1 X173.122 Y155.228 E8.12503
G1 X173.048 Y154.982 E8.13795
G1 X173.041 Y154.259 E8.17423
G1 X173.110 Y154.012 E8.18711
G1 X173.469 Y153.435 E8.22122
G1 X173.660 Y153.264 E8.23406
G1 X174.296 Y152.952 E8.26964
G1 X174.550 Y152.912 E8.28254
G1 X175.239 Y152.985 E8.31728
G1 X175.475 Y153.097 E8.33041
G1 X176.079 Y153.585 E8.36939
G1 X176.193 Y153.841 E8.38346
G1 X176.404 Y154.536 E8.41990
G1 X176.617 Y154.713 F7800.000
G1 E1.91990 F1500.00000
G92 E0
G1 Z1.350 F7800.000
G1 X178.806 Y158.704
G1 Z0.350
G1 E6.50000 F1500.00000
G1 F1800
G1 X50.605 Y158.704 E12.93386
G1 X50.605 Y60.504 E17.86214
G1 X178.806 Y60.504 E24.29599
G1 X178.806 Y158.644 E29.22126
G1 X179.150 Y159.049 F7800.000
G1 F1800
G1 X50.260 Y159.049 E35.68973
G1 X50.260 Y60.159 E40.65263
G1 X179.150 Y60.159 E47.12110
G1 X179.150 Y158.989 E52.08099
G1 X179.495 Y159.394 F7800.000
G1 F1800
G1 X49.915 Y159.394 E58.58408
G1 X49.915 Y59.814 E63.58159
G1 X179.495 Y59.814 E70.08468
G1 X179.495 Y159.334 E75.07919
G1 X179.105 Y159.307 F7800.000
G1 E68.57919 F1500.00000
G92 E0
G1 Z1.350 F7800.000
G1 X174.443 Y158.601
G1 Z0.350
G1 E6.50000 F1500.00000
G1 F1800
G1 X76.605 Y60.763 E13.45098
G1 X76.117 Y60.763 E13.47551
G1 X173.800 Y158.446 E20.41546
G1 X173.312 Y158.446 E20.43999
G1 X75.629 Y60.763 E27.37994
G1 X75.140 Y60.763 E27.40447
G1 X172.824 Y158.446 E34.34442
G1 X172.335 Y158.446 E34.36895
G1 X74.652 Y60.763 E41.30891
G1 X74.164 Y60.763 E41.33343
G1 X171.847 Y158.446 E48.27339
G1 X171.359 Y158.446 E48.29792
G1 X73.676 Y60.763 E55.23787
G1 X73.187 Y60.763 E55.26240
G1 X170.871 Y158.446 E62.20235
G1 X170.382 Y158.446 E62.22688
G1 X72.699 Y60.763 E69.16683
G1 X72.211 Y60.763 E69.19136
G1 X169.894 Y158.446 E76.13131
G1 X169.406 Y158.446 E76.15584
G1 X71.723 Y60.763 E83.09580
G1 X71.234 Y60.763 E83.12032
G1 X168.918 Y158.446 E90.06028
G1 X168.429 Y158.446 E90.08481
G1 X70.746 Y60.763 E97.02476
G1 X70.258 Y60.763 E97.04929
G1 X167.941 Y158.446 E103.98924
G1 X167.453 Y158.446 E104.01377
G1 X69.770 Y60.763 E110.95372
G1 X69.281 Y60.763 E110.97825
G1 X166.965 Y158.446 E117.91820
G1 X166.476 Y158.446 E117.94273
G1 X68.793 Y60.763 E124.88269
G1 X68.305 Y60.763 E124.90721
G1 X165.988 Y158.446 E131.84717
G1 X165.500 Y158.446 E131.87169
G1 X67.817 Y60.763 E138.81165
G1 X67.329 Y60.763 E138.83618
G1 X165.012 Y158.446 E145.77613
G1 X164.523 Y158.446 E145.80066
G1 X66.840 Y60.763 E152.74061
G1 X66.352 Y60.763 E152.76514
G1 X164.035 Y158.446 E159.70509
G1 X163.547 Y158.446 E159.72962
G1 X65.864 Y60.763 E166.66957
G1 X65.376 Y60.763 E166.69410
G1 X163.059 Y158.446 E173.63406
G1 X162.570 Y158.446 E173.65858
G1 X64.887 Y60.763 E180.59854
G1 X64.399 Y60.763 E180.62307
G1 X162.082 Y158.446 E187.56302
G1 X161.594 Y158.446 E187.58755
G1 X63.911 Y60.763 E194.52750
G1 X63.423 Y60.763 E194.55203
G1 X161.106 Y158.446 E201.49198
G1 X160.617 Y158.446 E201.51651
G1 X62.934 Y60.763 E208.45646
G1 X62.446 Y60.763 E208.48099
G1 X160.129 Y158.446 E215.42095
G1 X159.641 Y158.446 E215.44547
G1 X61.958 Y60.763 E222.38543
G1 X61.470 Y60.763 E222.40996
G1 X159.153 Y158.446 E229.34991
G1 X158.665 Y158.446 E229.37444
G1 X60.981 Y60.763 E236.31439
G1 X60.493 Y60.763 E236.33892
G1 X158.176 Y158.446 E243.27887
G1 X157.688 Y158.446 E243.30340
G1 X60.005 Y60.763 E250.24335
G1 X59.517 Y60.763 E250.26788
G1 X157.200 Y158.446 E257.20784
G1 X156.712 Y158.446 E257.23236
G1 X59.028 Y60.763 E264.17232
G1 X58.540 Y60.763 E264.19684
G1 X156.223 Y158.446 E271.13680
G1 X155.735 Y158.446 E271.16133
G1 X58.052 Y60.763 E278.10128
G1 X57.564 Y60.763 E278.12581
G1 X155.247 Y158.446 E285.06576
G1 X154.759 Y158.446 E285.09029
G1 X57.075 Y60.763 E292.03024
G1 X56.587 Y60.763 E292.05477
G1 X79.270 Y83.446 E293.66631
G1 X78.782 Y83.446 E293.69084
G1 X56.099 Y60.763 E295.30237
G1 X55.611 Y60.763 E295.32690
G1 X78.294 Y83.446 E296.93844
G1 X77.806 Y83.446 E296.96297
G1 X55.122 Y60.763 E298.57450
G1 X54.634 Y60.763 E298.59903
G1 X77.317 Y83.446 E300.21057
G1 X76.829 Y83.446 E300.23510
G1 X57.179 Y63.796 E301.63115
G1 X57.374 Y64.479 E301.66688
G1 X76.341 Y83.446 E303.01436
G1 X75.853 Y83.446 E303.03888
G1 X57.322 Y64.915 E304.35544
G1 X57.210 Y65.291 E304.37517
G1 X75.364 Y83.446 E305.66496
G1 X74.876 Y83.446 E305.68949
G1 X57.098 Y65.668 E306.95252
G1 X57.008 Y65.975 E306.96860
G1 X56.966 Y66.024 E306.97182
G1 X74.388 Y83.446 E308.20957
G1 X73.900 Y83.446 E308.23410
G1 X56.741 Y66.287 E309.45312
G1 X56.669 Y66.372 E309.45869
G1 X56.487 Y66.521 E309.47054
G1 X73.411 Y83.446 E310.67294
G1 X72.923 Y83.446 E310.69746
G1 X56.219 Y66.741 E311.88423
G1 X55.951 Y66.961 E311.90166
G1 X72.435 Y83.446 E313.07280
G1 X71.947 Y83.446 E313.09733
G1 X55.596 Y67.094 E314.25901
G1 X55.467 Y67.142 E314.26591
G1 X55.190 Y67.177 E314.27992
G1 X71.458 Y83.446 E315.43573
G1 X70.970 Y83.446 E315.46025
G1 X54.757 Y67.232 E316.61213
G1 X54.525 Y67.262 E316.62387
G1 X54.245 Y67.208 E316.63823
G1 X70.482 Y83.446 E317.79182
G1 X69.994 Y83.446 E317.81635
G1 X50.864 Y64.316 E319.17545
G1 X50.864 Y63.827 E319.19998
G1 X52.089 Y65.053 E319.28705
G1 X52.090 Y64.566 E319.31153
G1 X50.864 Y63.339 E319.39867
G1 X50.864 Y62.851 E319.42320
G1 X52.105 Y64.092 E319.51135
G1 X52.214 Y63.713 E319.53117
G1 X50.864 Y62.363 E319.62708
G1 X50.864 Y61.874 E319.65161
G1 X52.376 Y63.387 E319.75904
G1 X52.570 Y63.092 E319.77674
G1 X50.864 Y61.386 E319.89796
G1 X50.864 Y60.898 E319.92248
